X: 12
T:The Leaking Bagpipe
% Nottingham Music Database
S:The Cantii Collection, via Phil Rowe
M:6/8
K:G
D3 |"Em"E3 B2A|B2G E2G|"D"F3 A2G|A2F DEF|"Em"E3 B2A|"Em"B2c d2e|"G"B2A "C"G2F|\
"Em"E3 ::
G3 |"Am"A3 c2B|A2B c2A|"Em"E3 G2F|E2F G2E|"Am"A3 c2B|A2B c2d|"Em"e2f gfg|\
"Em"e3 :|


